svgs/sharp-solid/headphones-simple.svg

<svg xmlns="http://www.w3.org/2000/svg" viewBox="0 0 512 512"><!--! Font Awesome Pro 6.4.2 by @fontawesome - https://fontawesome.com License - https://fontawesome.com/license (Commercial License) Copyright 2023 Fonticons, Inc. --><path d="M256 80C141.1 80 48 173.1 48 288V392v24H0V392 288C0 146.6 114.6 32 256 32s256 114.6 256 256V392v24H464V392 288c0-114.9-93.1-208-208-208zM80 288H192V480H80V288zm240 0H432V480H320V288z"/></svg>

<svg xmlns="http://www.w3.org/2000/svg" viewBox="0 0 512 512"><!--! Font Awesome Pro 6.6.0 by @fontawesome - https://fontawesome.com License - https://fontawesome.com/license (Commercial License) Copyright 2024 Fonticons, Inc. --><path d="M256 80C141.1 80 48 173.1 48 288l0 104 0 24L0 416l0-24L0 288C0 146.6 114.6 32 256 32s256 114.6 256 256l0 104 0 24-48 0 0-24 0-104c0-114.9-93.1-208-208-208zM80 288l112 0 0 192L80 480l0-192zm240 0l112 0 0 192-112 0 0-192z"/></svg>
